X:562
T: Sisifangfang yipanqi
N: C1982
O: China, Guangxi Guiping
S: II, 475]
R: Shange]
M: 4/4
L: 1/16
K: A
c4c4B2c2c8 | B4F4c8e2z2
c4A2c2A4F6A2 | F4F4A4c6A2 | F16 |
c4c4B2c2c8 | B2A2F2c2B2c6e2z2
c4A2F2c4F6A2 | F4F4B4c6A2 | F16 |
F4B4A4A2F6 | B4F4B2c6e2z2
c4A2c2A4F6A2 | F4F4A4c6A2 | F16 |
c4c4B2c2c4B2F2 | A2B2F2c2B2c6e2z2
c4A2F2c4F6A2 | F4F4B4c6A2 | F16

